usr/share/icons/biglinux-icons-material-dark/16/actions/project-development-close.svg

<svg xmlns="http://www.w3.org/2000/svg" viewBox="0 0 16 16">
<defs id="defs3051">
<style id="current-color-scheme" type="text/css">
.ColorScheme-Text{color:#dedede}.ColorScheme-NegativeText{color:#da4453}
</style>
</defs>
<path d="M2 2v12h6v-1H3V5h10v3h1V2z" class="ColorScheme-Text" style="fill:currentColor;fill-opacity:1;stroke:none"/>
<path d="m9.71 9-.707.707 1.793 1.793-1.793 1.793.707.707 1.793-1.793L13.296 14l.707-.707L12.21 11.5l1.793-1.793L13.296 9l-1.793 1.793Z" class="ColorScheme-NegativeText" style="fill:currentColor;fill-opacity:1;stroke:none"/>
</svg>

<svg xmlns="http://www.w3.org/2000/svg" viewBox="0 0 16 16">
  <defs id="defs3051">
    <style type="text/css" id="current-color-scheme">
      .ColorScheme-Text {
        color:#dedede;
      }
      .ColorScheme-NegativeText {
        color:#da4453;
      }
      </style>
  </defs>
 <path 
     style="fill:currentColor;fill-opacity:1;stroke:none" 
     d="M 2 2 L 2 14 L 8 14 L 8 13 L 3 13 L 3 5 L 13 5 L 13 8 L 14 8 L 14 2 L 3 2 L 2 2 z "
     class="ColorScheme-Text"/>
   <path
     style="fill:currentColor;fill-opacity:1;stroke:none" 
     class="ColorScheme-NegativeText"
    d="M 9.71,9 9.003,9.707 10.796,11.5 9.003,13.293 9.71,14 11.503,12.207 13.296,14 14.003,13.293 12.21,11.5 14.003,9.707 13.296,9 11.503,10.793 Z" />
</svg>
